X: 3793
T: Bjällran
R: reel
M: 4/4
K: Adorian
|:ed|c2 Ac BA GB|AB cd e2 ed|c2 Ac BG GB|BA A2 A2 ed|
c2 Ac BA GB|AB cd e2 eg|fe df ec Ac|B2 AG A2:|
|:A2|a2 ea gf e2|f2 df ec A2|AG AB cd eg|f2 ed e2 e2|
a2 ea gf e2|f2 df ec A2|AG AB cd ec|B2 AG A2:|

